dist/img/button-bg.svg

<svg width="262" height="80" viewBox="0 0 262 80" fill="none" xmlns="http://www.w3.org/2000/svg">
<path d="M259.348 40C259.348 43.9845 255.972 47.934 249.464 51.6319C242.994 55.3074 233.6 58.6341 221.948 61.4342C198.652 67.0324 166.443 70.5 130.848 70.5C95.2532 70.5 63.0443 67.0324 39.7482 61.4342C28.0962 58.6341 18.7019 55.3074 12.2326 51.6319C5.72401 47.934 2.34814 43.9845 2.34814 40C2.34814 36.0155 5.72401 32.066 12.2326 28.3681C18.7019 24.6926 28.0962 21.3659 39.7482 18.5658C63.0443 12.9676 95.2532 9.5 130.848 9.5C166.443 9.5 198.652 12.9676 221.948 18.5658C233.6 21.3659 242.994 24.6926 249.464 28.3681C255.972 32.066 259.348 36.0155 259.348 40Z" stroke="white"/>
<path d="M259.035 48.9637C258.757 52.9385 255.114 56.6429 248.363 59.8777C241.654 63.0931 232.05 65.7563 220.231 67.7368C196.601 71.6963 164.229 72.9087 128.721 70.4257C93.2124 67.9427 61.3239 62.2368 38.4751 55.0271C27.0468 51.4211 17.9074 47.4472 11.7103 43.3293C5.47547 39.1864 2.38334 35.0111 2.66128 31.0363C2.93923 27.0615 6.58237 23.3572 13.3331 20.1223C20.043 16.9069 29.6465 14.2437 41.4654 12.2633C65.0952 8.30367 97.4676 7.09132 132.976 9.5743C168.484 12.0573 200.373 17.7632 223.221 24.9729C234.65 28.5789 243.789 32.5528 249.986 36.6707C256.221 40.8136 259.313 44.9889 259.035 48.9637Z" stroke="white"/>
</svg>

<svg width="262" height="80" fill="none" xmlns="http://www.w3.org/2000/svg"><path d="M259.348 40c0 3.984-3.376 7.934-9.884 11.632-6.47 3.675-15.864 7.002-27.516 9.802-23.296 5.598-55.505 9.066-91.1 9.066-35.595 0-67.804-3.468-91.1-9.066-11.652-2.8-21.046-6.127-27.515-9.802C5.724 47.934 2.348 43.984 2.348 40s3.376-7.934 9.885-11.632c6.469-3.675 15.863-7.002 27.515-9.802 23.296-5.598 55.505-9.066 91.1-9.066 35.595 0 67.804 3.468 91.1 9.066 11.652 2.8 21.046 6.127 27.516 9.802 6.508 3.698 9.884 7.648 9.884 11.632Z" stroke="#fff"/><path d="M259.035 48.964c-.278 3.974-3.921 7.679-10.672 10.914-6.709 3.215-16.313 5.878-28.132 7.859-23.63 3.96-56.002 5.172-91.51 2.689-35.509-2.483-67.397-8.19-90.246-15.399-11.428-3.606-20.568-7.58-26.765-11.698-6.235-4.143-9.327-8.318-9.049-12.293.278-3.975 3.921-7.679 10.672-10.914 6.71-3.215 16.314-5.878 28.132-7.859 23.63-3.96 56.003-5.172 91.511-2.689 35.508 2.483 67.397 8.19 90.245 15.399 11.429 3.606 20.568 7.58 26.765 11.698 6.235 4.143 9.327 8.318 9.049 12.293Z" stroke="#fff"/></svg>
